X:1
T:Andantino
T:Andantino
T:Transcribed/Tabbed by Brett Sayles www.GoodFight.net
T:F. Carulli (1770-1841)
C:F. Carulli (1770-1841)
%%score { ( 1 2 ) | ( 3 4 ) }
L:1/8
Q:1/4=90
M:4/4
K:G
V:1 treble-8 nm="Guitar" snm="Guit."
V:2 treble-8 
V:3 tab stafflines=6 strings=E2,A2,D3,G3,B3,E4 nostems 
V:4 tab stafflines=6 strings=E2,A2,D3,G3,B3,E4 nostems 
V:1
 BGBG cGcG | dGdG d2 ef | gGgG fGfG | eGeG d2 z2 | [Ac]D[Ac]D [Ac]D ed | [GB]D[GB]D [GB]D gf | %6
 CeB,d A,cG,B | [DB]c^cd [DA]2 z2 :| Dcfc Dcfc | GgGd GBGd | Dcfc Dcfc | GgGd GBGd | CGeC B,GdB, | %13
 DcfD EBgE | CecA [DB]d[Dc]A | G,GDB, G,2 z2 :| %16
V:2
 G,2 G,2 A,2 A,2 | B,2 B,2 B,2 z2 | E2 E2 D2 D2 | C2 C2 B,2 z2 | x8 | x8 | x8 | x8 :| x8 | x8 | %10
 x8 | x8 | x8 | x8 | x8 | x8 :| %16
V:3
 !2!B, !3!G, !2!B, !3!G, !2!C !3!G, !2!C !3!G, | !2!D !3!G, !2!D !3!G, !2!D2 !1!E !1!F | %2
 !1!G !3!G, !1!G !3!G, !1!F !3!G, !1!F !3!G, | !1!E !3!G, !1!E !3!G, !2!D2 x2 | %4
 [!3!A,!2!C] !4!D, [!3!A,!2!C] !4!D, [!3!A,!2!C] !4!D, !1!E !2!D | %5
 [!3!G,!2!B,] !4!D, [!3!G,!2!B,] !4!D, [!3!G,!2!B,] !4!D, !1!G !1!F | %6
 !5!C, !1!E !5!B,, !2!D !5!A,, !2!C !6!G,, !2!B, | [!4!D,!2!B,] !2!C !2!^C !2!D [!4!D,!3!A,]2 x2 :| %8
 !4!D, !2!C !1!F !2!C !4!D, !2!C !1!F !2!C | !3!G, !1!G !3!G, !2!D !3!G, !2!B, !3!G, !2!D | %10
 !4!D, !2!C !1!F !2!C !4!D, !2!C !1!F !2!C | !3!G, !1!G !3!G, !2!D !3!G, !2!B, !3!G, !2!D | %12
 !5!C, !3!G, !1!E !5!C, !5!B,, !3!G, !2!D !5!B,, | !4!D, !2!C !1!F !4!D, !4!E, !2!B, !1!G !4!E, | %14
 !5!C, !1!E !2!C !3!A, [!4!D,!2!B,] !2!D [!4!D,!2!C] !3!A, | %15
 !6!G,, !3!G, !4!D, !5!B,, !6!G,,2 x2 :| %16
V:4
 !6!G,,2 !6!G,,2 !5!A,,2 !5!A,,2 | !5!B,,2 !5!B,,2 !5!B,,2 x2 | !4!E,2 !4!E,2 !4!D,2 !4!D,2 | %3
 !5!C,2 !5!C,2 !5!B,,2 x2 | x8 | x8 | x8 | x8 :| x8 | x8 | x8 | x8 | x8 | x8 | x8 | x8 :| %16

